X: 31514
T: Paddy's Green Shamrock Shore
R: waltz
M: 3/4
K: Amixolydian
A2|e3f g2|e4 A2|e3d c2|dc3A2|G3F G2|A4 B2|A6-|A4 a2|
f3e d2|e3f g2|a3g f2|e4 a2|f3ed2|A4 B2|G6-|G4 a2|
f3e d2|e3f g2|a3g f2|e4 a2|f3ed2|A4 B2|G6-|G4 A2|
e3f g2|e4 A2|e3d c2|dc3A2|G3F G2|A4 B2|A6-|A4||

